X:876
T:Gale Bridge
S:Tom Barrett
Z:Nigel Gatherer
M:12/8
L:1/8
R:slide
K:Gmaj
d2g B2A G2B AGA | B2A ABd e2d B2c | d2g B2A G2B AGA | B2A B2A G3 G3 :|
B2A ABd e2d B2A | B2A ABd e2d B2c | d2g B2A G2B AGA | B2A B2A G3 G3 :|
<end>
<start>
